gama.ui.shared/icons_svg/dark/prefs/prefs.libraries2.svg

<?xml version="1.0" encoding="UTF-8" standalone="no"?>
<!DOCTYPE svg PUBLIC "-//W3C//DTD SVG 1.1//EN" "http://www.w3.org/Graphics/SVG/1.1/DTD/svg11.dtd">
<svg xmlns="http://www.w3.org/2000/svg" xmlns:xl="http://www.w3.org/1999/xlink" version="1.1" xmlns:dc="http://purl.org/dc/elements/1.1/" viewBox="-778.7741 -3072.3843 25 25" width="25" height="25">
  <defs/>
  <g id="SOURCES" stroke-opacity="1" fill="none" stroke="none" fill-opacity="1" stroke-dasharray="none">
    <title>SOURCES</title>
    <g id="SOURCES_Dark">
      <title>Dark</title>
      <g id="Graphic_11130">
        <path d="M -769.8741 -3071.8843 L -762.6741 -3071.8843 C -760.2741 -3071.8843 -759.0741 -3071.8843 -757.6341 -3071.4043 C -756.4341 -3070.9243 -755.2341 -3069.7243 -754.7541 -3068.5243 C -754.2741 -3067.0843 -754.2741 -3065.8843 -754.2741 -3063.4843 L -754.2741 -3056.2843 C -754.2741 -3053.8843 -754.2741 -3052.6843 -754.7541 -3051.2443 C -755.2341 -3050.0443 -756.4341 -3048.8443 -757.6341 -3048.3643 C -759.0741 -3047.8843 -760.2741 -3047.8843 -762.6741 -3047.8843 L -769.8741 -3047.8843 C -772.2741 -3047.8843 -773.4741 -3047.8843 -774.9141 -3048.3643 C -776.1141 -3048.8443 -777.3141 -3050.0443 -777.7941 -3051.2443 C -778.2741 -3052.6843 -778.2741 -3053.8843 -778.2741 -3056.2843 L -778.2741 -3063.4843 C -778.2741 -3065.8843 -778.2741 -3067.0843 -777.7941 -3068.5243 C -777.3141 -3069.7243 -776.1141 -3070.9243 -774.9141 -3071.4043 C -773.4741 -3071.8843 -772.2741 -3071.8843 -769.8741 -3071.8843 M -769.8741 -3071.8843" fill="#ffe5bf"/>
        <path d="M -769.8741 -3071.8843 L -762.6741 -3071.8843 C -760.2741 -3071.8843 -759.0741 -3071.8843 -757.6341 -3071.4043 C -756.4341 -3070.9243 -755.2341 -3069.7243 -754.7541 -3068.5243 C -754.2741 -3067.0843 -754.2741 -3065.8843 -754.2741 -3063.4843 L -754.2741 -3056.2843 C -754.2741 -3053.8843 -754.2741 -3052.6843 -754.7541 -3051.2443 C -755.2341 -3050.0443 -756.4341 -3048.8443 -757.6341 -3048.3643 C -759.0741 -3047.8843 -760.2741 -3047.8843 -762.6741 -3047.8843 L -769.8741 -3047.8843 C -772.2741 -3047.8843 -773.4741 -3047.8843 -774.9141 -3048.3643 C -776.1141 -3048.8443 -777.3141 -3050.0443 -777.7941 -3051.2443 C -778.2741 -3052.6843 -778.2741 -3053.8843 -778.2741 -3056.2843 L -778.2741 -3063.4843 C -778.2741 -3065.8843 -778.2741 -3067.0843 -777.7941 -3068.5243 C -777.3141 -3069.7243 -776.1141 -3070.9243 -774.9141 -3071.4043 C -773.4741 -3071.8843 -772.2741 -3071.8843 -769.8741 -3071.8843 M -769.8741 -3071.8843" stroke="#a7957d" stroke-linecap="round" stroke-linejoin="round" stroke-width=".25"/>
      </g>
      <g id="Graphic_11129">
        <path d="M -773.4741 -3063.5723 L -773.4741 -3061.4843 C -773.4741 -3061.2123 -772.7941 -3060.7883 -771.5461 -3060.4603 C -770.1621 -3060.1003 -768.2821 -3059.8843 -766.2741 -3059.8843 C -764.2661 -3059.8843 -762.3861 -3060.0923 -761.0021 -3060.4603 C -759.7541 -3060.7883 -759.0741 -3061.2123 -759.0741 -3061.4843 L -759.0741 -3063.5723 C -760.3621 -3062.7643 -763.0901 -3062.2843 -766.2741 -3062.2843 C -769.4581 -3062.2843 -772.1861 -3062.7643 -773.4741 -3063.5723 Z M -774.2741 -3064.6843 C -774.2741 -3066.1483 -770.7301 -3067.0843 -766.2741 -3067.0843 C -761.8181 -3067.0843 -758.2741 -3066.1483 -758.2741 -3064.6843 L -758.2741 -3055.0843 C -758.2741 -3053.6203 -761.8181 -3052.6843 -766.2741 -3052.6843 C -770.7301 -3052.6843 -774.2741 -3053.6203 -774.2741 -3055.0843 Z M -759.0741 -3060.3723 C -760.3621 -3059.5643 -763.0901 -3059.0843 -766.2741 -3059.0843 C -769.4581 -3059.0843 -772.1861 -3059.5643 -773.4741 -3060.3723 L -773.4741 -3058.2843 C -773.4741 -3058.0123 -772.7941 -3057.5883 -771.5461 -3057.2603 C -770.1621 -3056.9003 -768.2821 -3056.6843 -766.2741 -3056.6843 C -764.2661 -3056.6843 -762.3861 -3056.8923 -761.0021 -3057.2603 C -759.7541 -3057.5883 -759.0741 -3058.0123 -759.0741 -3058.2843 Z M -759.0741 -3057.1723 C -760.3621 -3056.3643 -763.0901 -3055.8843 -766.2741 -3055.8843 C -769.4581 -3055.8843 -772.1861 -3056.3643 -773.4741 -3057.1723 L -773.4741 -3055.0843 C -773.4741 -3054.8123 -772.7941 -3054.3883 -771.5461 -3054.0603 C -770.1621 -3053.7003 -768.2821 -3053.4843 -766.2741 -3053.4843 C -764.2661 -3053.4843 -762.3861 -3053.6923 -761.0021 -3054.0603 C -759.7541 -3054.3883 -759.0741 -3054.8123 -759.0741 -3055.0843 Z M -766.2741 -3063.0843 C -764.2661 -3063.0843 -762.3861 -3063.2923 -761.0021 -3063.6603 C -759.7541 -3063.9883 -759.0741 -3064.4123 -759.0741 -3064.6843 C -759.0741 -3064.9563 -759.7541 -3065.3803 -761.0021 -3065.7083 C -762.3861 -3066.0683 -764.2661 -3066.2843 -766.2741 -3066.2843 C -768.2821 -3066.2843 -770.1621 -3066.0763 -771.5461 -3065.7083 C -772.7941 -3065.3803 -773.4741 -3064.9563 -773.4741 -3064.6843 C -773.4741 -3064.4123 -772.7941 -3063.9883 -771.5461 -3063.6603 C -770.1621 -3063.3003 -768.2821 -3063.0843 -766.2741 -3063.0843 Z" fill="black"/>
      </g>
    </g>
  </g>
</svg>

<svg height="25" viewBox="-778.774 -3072.384 25 25" width="25" xmlns="http://www.w3.org/2000/svg"><g fill="none"><path d="m-769.8741-3071.8843h7.2c2.4 0 3.6 0 5.04.48 1.2.48 2.4 1.68 2.88 2.88.48 1.44.48 2.64.48 5.04v7.2c0 2.4 0 3.6-.48 5.04-.48 1.2-1.68 2.4-2.88 2.88-1.44.48-2.64.48-5.04.48h-7.2c-2.4 0-3.6 0-5.04-.48-1.2-.48-2.4-1.68-2.88-2.88-.48-1.44-.48-2.64-.48-5.04v-7.2c0-2.4 0-3.6.48-5.04.48-1.2 1.68-2.4 2.88-2.88 1.44-.48 2.64-.48 5.04-.48m0 0" fill="#ffe5bf"/><path d="m-769.8741-3071.8843h7.2c2.4 0 3.6 0 5.04.48 1.2.48 2.4 1.68 2.88 2.88.48 1.44.48 2.64.48 5.04v7.2c0 2.4 0 3.6-.48 5.04-.48 1.2-1.68 2.4-2.88 2.88-1.44.48-2.64.48-5.04.48h-7.2c-2.4 0-3.6 0-5.04-.48-1.2-.48-2.4-1.68-2.88-2.88-.48-1.44-.48-2.64-.48-5.04v-7.2c0-2.4 0-3.6.48-5.04.48-1.2 1.68-2.4 2.88-2.88 1.44-.48 2.64-.48 5.04-.48m0 0" stroke="#a7957d" stroke-linecap="round" stroke-linejoin="round" stroke-width=".25"/><path d="m-773.4741-3063.5723v2.088c0 .272.68.696 1.928 1.024 1.384.36 3.264.576 5.272.576s3.888-.208 5.272-.576c1.248-.328 1.928-.752 1.928-1.024v-2.088c-1.288.808-4.016 1.288-7.2 1.288s-5.912-.48-7.2-1.288zm-.8-1.112c0-1.464 3.544-2.4 8-2.4s8 .936 8 2.4v9.6c0 1.464-3.544 2.4-8 2.4s-8-.936-8-2.4zm15.2 4.312c-1.288.808-4.016 1.288-7.2 1.288s-5.912-.48-7.2-1.288v2.088c0 .272.68.696 1.928 1.024 1.384.36 3.264.576 5.272.576s3.888-.208 5.272-.576c1.248-.328 1.928-.752 1.928-1.024zm0 3.2c-1.288.808-4.016 1.288-7.2 1.288s-5.912-.48-7.2-1.288v2.088c0 .272.68.696 1.928 1.024 1.384.36 3.264.576 5.272.576s3.888-.208 5.272-.576c1.248-.328 1.928-.752 1.928-1.024zm-7.2-5.912c2.008 0 3.888-.208 5.272-.576 1.248-.328 1.928-.752 1.928-1.024s-.68-.696-1.928-1.024c-1.384-.36-3.264-.576-5.272-.576s-3.888.208-5.272.576c-1.248.328-1.928.752-1.928 1.024s.68.696 1.928 1.024c1.384.36 3.264.576 5.272.576z" fill="#000"/></g></svg>
